images/sponsors/pixelmatters.svg

<svg width="138" height="26" viewBox="0 0 138 26" xmlns="http://www.w3.org/2000/svg"><title>pixelmatters</title><g fill-rule="nonzero" fill="#FF695C"><path d="M58.24 15.756c-1.196 1.456-2.964 2.548-4.264 2.548-.728 0-1.612-.936-1.3-3.536 1.976-2.34 6.552-5.668 7.228-10.868.312-2.6-.884-3.692-2.808-3.588-3.952.208-6.916 9.152-7.176 13.884v.26c-1.508 1.716-3.9 3.692-6.24 3.64-.78 0-1.352-.312-1.716-.78-.312-.416-.416-.78-.416-.78s6.812-1.924 6.916-6.604c.052-1.716-1.352-2.912-2.912-2.912-3.9 0-7.384 3.952-7.54 8.736l.052-.052c.26.676.884 1.82.312 2.652.52 1.456 1.664 2.496 3.64 2.548 3.12.104 6.136-2.08 8.008-4.16.416 2.6 1.664 4.108 3.224 4.108 2.34 0 4.004-1.352 5.2-2.808.312-1.092.78-2.704 1.248-4.42a17.443 17.443 0 0 1-1.456 2.132zM56.68 3.38c.676-.052.624.624.572 1.092-.364 2.548-2.86 5.928-4.316 7.8.936-4.056 3.068-8.892 3.744-8.892zM43.836 9.828c.52-.312 1.716-.416 1.976.26.832 2.236-4.628 4.992-4.628 4.992s-.676-3.172 2.652-5.252z"/><path d="M38.012 15.704c-.312.364-1.976 3.068-3.64 3.068-1.196 0-2.08-1.3-2.704-3.016 2.704-2.6 5.668-6.604 5.668-7.228 0-1.56-3.172-1.768-3.536-1.248-.104.156-1.352 3.016-2.964 5.46-.52-2.548-.676-4.992-.676-5.148-.156-.572-.26-.52-.312-.52-.52-.052-2.548 0-3.068 1.196-.156.312.52 4.004 1.612 7.02-1.3 1.3-2.444 2.132-2.86 2.444-.884.624-1.82.936-2.288.884-1.404-.104-1.456-1.612-1.04-4.108.728-4.68 2.08-6.968 2.132-7.02.052-.624-3.276-.52-3.796.936-.26.416-1.612 4.524-1.664 7.384-.052 1.716-.208 5.044 3.848 5.044 1.092 0 2.288-.416 3.692-1.352.832-.572 1.872-1.3 2.86-2.184.052.104.104.208.208.312 1.092 1.82 2.444 3.172 4.316 3.172 2.028 0 3.588-1.196 4.524-2.444v-.052c.572-.78-.052-1.872-.312-2.6zM24.804 4.784c.988-.624 1.352-1.768.884-2.548-.52-.78-1.716-.988-2.704-.364-.988.624-1.352 1.768-.884 2.548.52.832 1.716.988 2.704.364zM13.208 1.196C9.62-.676 4.628.156 1.82 3.588c-.156.156-.26.312-.364.52C.884 4.888 2.6 7.8 3.068 6.5c1.144-3.224 4.68-4.316 7.228-3.224 4.992 2.08 5.096 7.228 3.848 10.608-1.352 3.64-4.472 4.42-5.512 4.212-1.924-.416-2.548-1.456-2.652-2.652.572-1.976.78-3.38.884-4.212.104-1.404-2.444-.572-3.744 0v1.04c-.156 2.496-1.352 5.98-2.34 9.152-.208.676-.364 1.248-.26 1.82.208 1.456 1.768 2.288 2.86 2.288.468 0 .572-.416.52-.624a4.21 4.21 0 0 1 0-1.144c.104-1.3.468-2.86.936-4.524 3.536 3.068 9.828 1.82 12.48-4.992 1.768-4.524 1.04-10.348-4.108-13.052zM119.496 11.596a1.24 1.24 0 0 1-.572-.312c-.52 1.196-1.872 3.796-3.796 5.408-1.144.988-2.548 1.456-3.744 1.352-.728-.104-1.248-.364-1.56-.884-.26-.468-.312-.78-.312-.78s6.604-1.456 7.072-6.084c.156-1.716-1.04-2.964-2.496-3.12-3.172-.364-7.332 3.432-7.852 8.268-.052.312-.052.676-.052.988-.832.936-1.664 1.612-2.548 1.612-1.144 0-1.456-1.456-1.456-2.808 0-1.716.728-4.732 1.248-7.02 3.536-.416 4.628-1.3 4.628-2.652 0-1.404-1.144-2.028-1.144-2.028s-.26 1.196-2.86 2.08c.26-1.248.572-2.184.572-2.86 0-1.924-1.508-2.34-3.068-2.34 0 0 .052 1.56-.052 2.86-.104 1.3-.416 2.392-.52 3.068-1.144.156-2.548.26-4.16.26h-.416c.26-1.248.572-2.964.572-3.744 0-1.144-.416-1.924-2.6-1.976-.156 0-.468.26-.468.416.104.572.156 1.248.156 1.82 0 .936-.208 2.444-.364 3.432-1.248-.104-1.924-.26-1.924-.26s-.572.416-.572 1.092c0 .676.624 1.04 2.132 1.144-.624 2.548-1.508 5.616-1.664 7.644v.104c-.884 1.092-1.976 2.028-2.912 1.924-.312-.052-.884-.156-.624-1.82.156-1.144.52-1.56.728-2.652.104-.728-.312-.676-.572-.676-1.716 0-2.184.364-2.34.676-.416.832-.624 1.612-.78 2.34-.624.832-1.404 1.82-2.548 1.82-1.196 0-2.08-1.196-1.976-2.912.156-3.12 2.496-5.2 4.94-5.096.988.052 1.924.312 2.652.884.208.156 1.3-.364 1.04-1.664-.208-.676-.728-1.768-2.704-1.872-5.096-.208-8.164 4.16-8.58 8.112-3.068 4.212-3.588 2.86-3.536 2.548.104-2.132 2.86-5.928 2.184-8.84-.26-1.144-1.3-1.768-2.34-1.82-1.456-.052-3.12 1.612-4.368 3.328 0-2.132-.78-3.328-2.184-3.38-1.612-.104-3.068 1.248-4.368 3.068.052-.26.104-.624.104-.884.104-1.716-1.456-2.08-2.444-2.08h-.468c.208 1.924-.26 4.316-.78 6.5-.416 1.716-.936 3.328-1.248 4.42-.156.572-.26.988-.26 1.248-.052 1.092.572 1.456 1.352 1.456 1.04 0 2.08-.312 2.08-.312-.156-.624.208-2.912.78-4.888.78-2.756 2.86-6.032 3.848-5.98.624.052.78 1.144.728 2.236-.052 1.456-1.56 5.772-1.664 6.968-.156 1.976 2.132 1.976 2.496 1.976.52 0 .52-3.536 1.872-7.592.572-1.768 2.392-3.484 3.172-3.432.572.052.78 1.04.572 1.924-.468 2.236-1.872 4.42-1.976 6.708-.104 1.716.884 2.34 1.872 2.392.728.052 1.404-.208 2.184-.728.572-.416 2.184-1.716 2.652-2.444.52 1.664 1.82 3.276 3.848 3.276 1.404 0 2.548-.78 3.12-2.028.052.26.104.364.104.364l.052-.052c.312.676.832 1.508 1.924 1.664 1.404.156 3.12-1.196 4.472-2.652.364 1.82 1.352 2.652 2.652 2.652 1.612 0 3.536-1.976 4.732-3.692.208 2.288 1.508 3.692 3.12 3.692 1.404 0 2.912-1.248 4.264-2.704.416 1.404 1.404 2.496 3.172 2.652 2.132.26 4.68-1.04 6.708-2.756 2.34-1.976 4.212-4.94 4.732-6.292l-1.664-.26zm-20.28 2.756c-.832 1.56-1.82 2.964-3.016 2.964-.936 0-1.456-.884-1.456-2.496 0-1.456.676-4.316 1.144-6.396 2.08 0 3.432-.052 4.576-.052-.364 1.872-1.04 4.42-1.248 5.98zm10.14-.78c.156-.364.26-.676.312-.988.364-.936 1.144-2.028 2.548-2.808.52-.312 1.664-.312 1.82.416.624 2.288-4.784 4.628-4.784 4.628s-.052-.468.104-1.248z"/><path d="M133.068 12.584c-1.092-.624-1.456-1.092-1.352-2.028.052-.728.832-1.664 1.976-1.664 1.976 0 1.976 2.132 1.976 2.184 0 .208.052.312.104.312 0 0 .884-.104 1.3-.78.26-.416.676-1.716-.78-2.756-.624-.468-1.56-.78-2.6-.78-1.768 0-4.108.572-4.628 3.692-.26 1.664.78 2.808 2.236 3.796 1.3.832 2.704 1.612 2.6 2.756-.104.936-.78 1.664-1.716 1.612h-.104c-1.352-.104-2.132-1.196-1.976-2.756 0-.156.052-.364.052-.52 0-.104.052-.208.052-.26 0-.26 0-.416-.104-.572a.693.693 0 0 0-.52-.208h-.104c-.468 0-.936.156-1.456.468-.364.26-.624.572-.728 1.092-.312.364-.884 2.496-2.444 2.496-.676 0-1.404-.364-1.092-2.496.208-1.508 1.248-2.964 1.924-3.796.468-.572 1.144-1.352 1.196-1.716.156-1.456-1.196-2.392-2.392-1.612-.884.572-1.82.936-2.652 1.04-.052 0-.156 0-.208-.052-.052-.052-.104-.156-.052-.208.468-.572.936-2.392-.52-2.652-2.236-.416-2.704 1.404-2.756 2.132-.104.884.156 1.56.728 2.028.156.104.364.208.572.312l1.508.156.26.052c.624 0 1.352-.052 2.184-.156h.052c.052 0 .156.052.156.104.052.104 0 .208-.052.26-.572.468-1.196 1.248-1.872 2.288-.676 1.04-.936 2.132-1.092 3.172-.208 1.716 1.3 3.38 2.964 3.38 2.028 0 3.432-1.248 4.108-2.08.156.208.312.468.52.676.832.832 2.028 1.456 3.588 1.456 3.224 0 4.68-1.716 4.992-3.484.416-2.548-2.132-3.952-3.848-4.888z"/></g></svg>

<?xml version="1.0" encoding="UTF-8"?>
<svg width="138px" height="26px" viewBox="0 0 138 26" version="1.1" xmlns="http://www.w3.org/2000/svg" xmlns:xlink="http://www.w3.org/1999/xlink">
    <!-- Generator: Sketch 42 (36781) - http://www.bohemiancoding.com/sketch -->
    <title>pixelmatters</title>
    <desc>Created with Sketch.</desc>
    <defs></defs>
    <g id="Type-+-Color" stroke="none" stroke-width="1" fill="none" fill-rule="evenodd">
        <g id="1st-version-mirror-desktop" transform="translate(-468.000000, -5694.000000)" fill-rule="nonzero" fill="#FF695C">
            <g id="pixelmatters" transform="translate(468.000000, 5694.000000)">
                <path d="M58.24,15.756 C57.044,17.212 55.276,18.304 53.976,18.304 C53.248,18.304 52.364,17.368 52.676,14.768 C54.652,12.428 59.228,9.1 59.904,3.9 C60.216,1.3 59.02,0.208 57.096,0.312 C53.144,0.52 50.18,9.464 49.92,14.196 L49.92,14.456 C48.412,16.172 46.02,18.148 43.68,18.096 C42.9,18.096 42.328,17.784 41.964,17.316 C41.652,16.9 41.548,16.536 41.548,16.536 C41.548,16.536 48.36,14.612 48.464,9.932 C48.516,8.216 47.112,7.02 45.552,7.02 C41.652,7.02 38.168,10.972 38.012,15.756 L38.064,15.704 C38.324,16.38 38.948,17.524 38.376,18.356 C38.896,19.812 40.04,20.852 42.016,20.904 C45.136,21.008 48.152,18.824 50.024,16.744 C50.44,19.344 51.688,20.852 53.248,20.852 C55.588,20.852 57.252,19.5 58.448,18.044 C58.76,16.952 59.228,15.34 59.696,13.624 C59.332,14.248 58.864,14.976 58.24,15.756 Z M56.68,3.38 C57.356,3.328 57.304,4.004 57.252,4.472 C56.888,7.02 54.392,10.4 52.936,12.272 C53.872,8.216 56.004,3.38 56.68,3.38 Z M43.836,9.828 C44.356,9.516 45.552,9.412 45.812,10.088 C46.644,12.324 41.184,15.08 41.184,15.08 C41.184,15.08 40.508,11.908 43.836,9.828 Z" id="Shape"></path>
                <path d="M38.012,15.704 L38.012,15.704 C37.7,16.068 36.036,18.772 34.372,18.772 C33.176,18.772 32.292,17.472 31.668,15.756 C34.372,13.156 37.336,9.152 37.336,8.528 C37.336,6.968 34.164,6.76 33.8,7.28 C33.696,7.436 32.448,10.296 30.836,12.74 C30.316,10.192 30.16,7.748 30.16,7.592 C30.004,7.02 29.9,7.072 29.848,7.072 C29.328,7.02 27.3,7.072 26.78,8.268 C26.624,8.58 27.3,12.272 28.392,15.288 C27.092,16.588 25.948,17.42 25.532,17.732 C24.648,18.356 23.712,18.668 23.244,18.616 C21.84,18.512 21.788,17.004 22.204,14.508 C22.932,9.828 24.284,7.54 24.336,7.488 C24.388,6.864 21.06,6.968 20.54,8.424 C20.28,8.84 18.928,12.948 18.876,15.808 C18.824,17.524 18.668,20.852 22.724,20.852 C23.816,20.852 25.012,20.436 26.416,19.5 C27.248,18.928 28.288,18.2 29.276,17.316 C29.328,17.42 29.38,17.524 29.484,17.628 C30.576,19.448 31.928,20.8 33.8,20.8 C35.828,20.8 37.388,19.604 38.324,18.356 C38.324,18.356 38.324,18.356 38.324,18.304 C38.896,17.524 38.272,16.432 38.012,15.704 Z" id="Shape"></path>
                <path d="M24.804,4.784 C25.792,4.16 26.156,3.016 25.688,2.236 C25.168,1.456 23.972,1.248 22.984,1.872 C21.996,2.496 21.632,3.64 22.1,4.42 C22.62,5.252 23.816,5.408 24.804,4.784 Z" id="Shape"></path>
                <path d="M13.208,1.196 C9.62,-0.676 4.628,0.156 1.82,3.588 C1.664,3.744 1.56,3.9 1.456,4.108 C0.884,4.888 2.6,7.8 3.068,6.5 C4.212,3.276 7.748,2.184 10.296,3.276 C15.288,5.356 15.392,10.504 14.144,13.884 C12.792,17.524 9.672,18.304 8.632,18.096 C6.708,17.68 6.084,16.64 5.98,15.444 C6.552,13.468 6.76,12.064 6.864,11.232 C6.968,9.828 4.42,10.66 3.12,11.232 L3.12,12.272 C2.964,14.768 1.768,18.252 0.78,21.424 C0.572,22.1 0.416,22.672 0.52,23.244 C0.728,24.7 2.288,25.532 3.38,25.532 C3.848,25.532 3.952,25.116 3.9,24.908 C3.848,24.544 3.848,24.18 3.9,23.764 C4.004,22.464 4.368,20.904 4.836,19.24 C8.372,22.308 14.664,21.06 17.316,14.248 C19.084,9.724 18.356,3.9 13.208,1.196 Z" id="Shape"></path>
                <path d="M119.496,11.596 C119.288,11.544 119.08,11.44 118.924,11.284 C118.404,12.48 117.052,15.08 115.128,16.692 C113.984,17.68 112.58,18.148 111.384,18.044 C110.656,17.94 110.136,17.68 109.824,17.16 C109.564,16.692 109.512,16.38 109.512,16.38 C109.512,16.38 116.116,14.924 116.584,10.296 C116.74,8.58 115.544,7.332 114.088,7.176 C110.916,6.812 106.756,10.608 106.236,15.444 C106.184,15.756 106.184,16.12 106.184,16.432 C105.352,17.368 104.52,18.044 103.636,18.044 C102.492,18.044 102.18,16.588 102.18,15.236 C102.18,13.52 102.908,10.504 103.428,8.216 C106.964,7.8 108.056,6.916 108.056,5.564 C108.056,4.16 106.912,3.536 106.912,3.536 C106.912,3.536 106.652,4.732 104.052,5.616 C104.312,4.368 104.624,3.432 104.624,2.756 C104.624,0.832 103.116,0.416 101.556,0.416 C101.556,0.416 101.608,1.976 101.504,3.276 C101.4,4.576 101.088,5.668 100.984,6.344 C99.84,6.5 98.436,6.604 96.824,6.604 L96.408,6.604 C96.668,5.356 96.98,3.64 96.98,2.86 C96.98,1.716 96.564,0.936 94.38,0.884 C94.224,0.884 93.912,1.144 93.912,1.3 C94.016,1.872 94.068,2.548 94.068,3.12 C94.068,4.056 93.86,5.564 93.704,6.552 C92.456,6.448 91.78,6.292 91.78,6.292 C91.78,6.292 91.208,6.708 91.208,7.384 C91.208,8.06 91.832,8.424 93.34,8.528 C92.716,11.076 91.832,14.144 91.676,16.172 L91.676,16.276 C90.792,17.368 89.7,18.304 88.764,18.2 C88.452,18.148 87.88,18.044 88.14,16.38 C88.296,15.236 88.66,14.82 88.868,13.728 C88.972,13 88.556,13.052 88.296,13.052 C86.58,13.052 86.112,13.416 85.956,13.728 C85.54,14.56 85.332,15.34 85.176,16.068 C84.552,16.9 83.772,17.888 82.628,17.888 C81.432,17.888 80.548,16.692 80.652,14.976 C80.808,11.856 83.148,9.776 85.592,9.88 C86.58,9.932 87.516,10.192 88.244,10.764 C88.452,10.92 89.544,10.4 89.284,9.1 C89.076,8.424 88.556,7.332 86.58,7.228 C81.484,7.02 78.416,11.388 78,15.34 L78,15.34 C74.932,19.552 74.412,18.2 74.464,17.888 C74.568,15.756 77.324,11.96 76.648,9.048 C76.388,7.904 75.348,7.28 74.308,7.228 C72.852,7.176 71.188,8.84 69.94,10.556 C69.94,8.424 69.16,7.228 67.756,7.176 C66.144,7.072 64.688,8.424 63.388,10.244 C63.44,9.984 63.492,9.62 63.492,9.36 C63.596,7.644 62.036,7.28 61.048,7.28 L60.58,7.28 C60.788,9.204 60.32,11.596 59.8,13.78 C59.384,15.496 58.864,17.108 58.552,18.2 C58.396,18.772 58.292,19.188 58.292,19.448 C58.24,20.54 58.864,20.904 59.644,20.904 C60.684,20.904 61.724,20.592 61.724,20.592 C61.568,19.968 61.932,17.68 62.504,15.704 C63.284,12.948 65.364,9.672 66.352,9.724 C66.976,9.776 67.132,10.868 67.08,11.96 C67.028,13.416 65.52,17.732 65.416,18.928 C65.26,20.904 67.548,20.904 67.912,20.904 C68.432,20.904 68.432,17.368 69.784,13.312 C70.356,11.544 72.176,9.828 72.956,9.88 C73.528,9.932 73.736,10.92 73.528,11.804 C73.06,14.04 71.656,16.224 71.552,18.512 C71.448,20.228 72.436,20.852 73.424,20.904 C74.152,20.956 74.828,20.696 75.608,20.176 C76.18,19.76 77.792,18.46 78.26,17.732 C78.78,19.396 80.08,21.008 82.108,21.008 C83.512,21.008 84.656,20.228 85.228,18.98 C85.28,19.24 85.332,19.344 85.332,19.344 C85.332,19.344 85.332,19.344 85.384,19.292 C85.696,19.968 86.216,20.8 87.308,20.956 C88.712,21.112 90.428,19.76 91.78,18.304 C92.144,20.124 93.132,20.956 94.432,20.956 C96.044,20.956 97.968,18.98 99.164,17.264 C99.372,19.552 100.672,20.956 102.284,20.956 C103.688,20.956 105.196,19.708 106.548,18.252 C106.964,19.656 107.952,20.748 109.72,20.904 C111.852,21.164 114.4,19.864 116.428,18.148 C118.768,16.172 120.64,13.208 121.16,11.856 L119.496,11.596 Z M99.216,14.352 C98.384,15.912 97.396,17.316 96.2,17.316 C95.264,17.316 94.744,16.432 94.744,14.82 C94.744,13.364 95.42,10.504 95.888,8.424 C97.968,8.424 99.32,8.372 100.464,8.372 C100.1,10.244 99.424,12.792 99.216,14.352 Z M109.356,13.572 C109.512,13.208 109.616,12.896 109.668,12.584 C110.032,11.648 110.812,10.556 112.216,9.776 C112.736,9.464 113.88,9.464 114.036,10.192 C114.66,12.48 109.252,14.82 109.252,14.82 C109.252,14.82 109.2,14.352 109.356,13.572 Z" id="Shape"></path>
                <path d="M133.068,12.584 C131.976,11.96 131.612,11.492 131.716,10.556 C131.768,9.828 132.548,8.892 133.692,8.892 C135.668,8.892 135.668,11.024 135.668,11.076 C135.668,11.284 135.72,11.388 135.772,11.388 C135.772,11.388 136.656,11.284 137.072,10.608 C137.332,10.192 137.748,8.892 136.292,7.852 C135.668,7.384 134.732,7.072 133.692,7.072 C131.924,7.072 129.584,7.644 129.064,10.764 C128.804,12.428 129.844,13.572 131.3,14.56 C132.6,15.392 134.004,16.172 133.9,17.316 C133.796,18.252 133.12,18.98 132.184,18.928 L132.08,18.928 C130.728,18.824 129.948,17.732 130.104,16.172 C130.104,16.016 130.156,15.808 130.156,15.652 C130.156,15.548 130.208,15.444 130.208,15.392 C130.208,15.132 130.208,14.976 130.104,14.82 C130,14.716 129.844,14.612 129.584,14.612 L129.48,14.612 C129.012,14.612 128.544,14.768 128.024,15.08 C127.66,15.34 127.4,15.652 127.296,16.172 L127.296,16.172 C126.984,16.536 126.412,18.668 124.852,18.668 C124.176,18.668 123.448,18.304 123.76,16.172 C123.968,14.664 125.008,13.208 125.684,12.376 C126.152,11.804 126.828,11.024 126.88,10.66 C127.036,9.204 125.684,8.268 124.488,9.048 C123.604,9.62 122.668,9.984 121.836,10.088 C121.784,10.088 121.68,10.088 121.628,10.036 C121.576,9.984 121.524,9.88 121.576,9.828 C122.044,9.256 122.512,7.436 121.056,7.176 C118.82,6.76 118.352,8.58 118.3,9.308 C118.196,10.192 118.456,10.868 119.028,11.336 C119.184,11.44 119.392,11.544 119.6,11.648 L121.108,11.804 L121.368,11.856 C121.992,11.856 122.72,11.804 123.552,11.7 L123.604,11.7 C123.656,11.7 123.76,11.752 123.76,11.804 C123.812,11.908 123.76,12.012 123.708,12.064 C123.136,12.532 122.512,13.312 121.836,14.352 C121.16,15.392 120.9,16.484 120.744,17.524 C120.536,19.24 122.044,20.904 123.708,20.904 C125.736,20.904 127.14,19.656 127.816,18.824 C127.972,19.032 128.128,19.292 128.336,19.5 C129.168,20.332 130.364,20.956 131.924,20.956 C135.148,20.956 136.604,19.24 136.916,17.472 C137.332,14.924 134.784,13.52 133.068,12.584 Z" id="Shape"></path>
            </g>
        </g>
    </g>
</svg>
